images/file.svg

<svg width="24" height="24" viewBox="0 0 24 24" fill="none" xmlns="http://www.w3.org/2000/svg">
<path d="M9 17H15" stroke="url(#paint0_linear_310_266)" stroke-width="2" stroke-linecap="round"/>
<path d="M9 13H15" stroke="url(#paint1_linear_310_266)" stroke-width="2" stroke-linecap="round"/>
<path d="M9 9H10" stroke="url(#paint2_linear_310_266)" stroke-width="2" stroke-linecap="round"/>
<path d="M5 6C5 4.34315 6.34315 3 8 3H13.1716C13.702 3 14.2107 3.21071 14.5858 3.58579L18.4142 7.41421C18.7893 7.78929 19 8.29799 19 8.82843V18C19 19.6569 17.6569 21 16 21H8C6.34315 21 5 19.6569 5 18V6Z" stroke="url(#paint3_linear_310_266)" stroke-width="2"/>
<path d="M13 3V5C13 7.20914 14.7909 9 17 9H19" stroke="url(#paint4_linear_310_266)" stroke-width="2"/>
<defs>
<linearGradient id="paint0_linear_310_266" x1="11.1862" y1="18.0987" x2="11.9525" y2="15.8118" gradientUnits="userSpaceOnUse">
<stop stop-color="white"/>
<stop offset="1" stop-color="#AED3FF"/>
</linearGradient>
<linearGradient id="paint1_linear_310_266" x1="11.1862" y1="14.0987" x2="11.9525" y2="11.8118" gradientUnits="userSpaceOnUse">
<stop stop-color="white"/>
<stop offset="1" stop-color="#AED3FF"/>
</linearGradient>
<linearGradient id="paint2_linear_310_266" x1="9.36437" y1="10.0987" x2="10.3787" y2="9.59415" gradientUnits="userSpaceOnUse">
<stop stop-color="white"/>
<stop offset="1" stop-color="#AED3FF"/>
</linearGradient>
<linearGradient id="paint3_linear_310_266" x1="10.1012" y1="22.7763" x2="25.5088" y2="16.8154" gradientUnits="userSpaceOnUse">
<stop stop-color="white"/>
<stop offset="1" stop-color="#AED3FF"/>
</linearGradient>
<linearGradient id="paint4_linear_310_266" x1="15.1862" y1="9.59211" x2="21.272" y2="6.5649" gradientUnits="userSpaceOnUse">
<stop stop-color="white"/>
<stop offset="1" stop-color="#AED3FF"/>
</linearGradient>
</defs>
</svg>

<svg xmlns="http://www.w3.org/2000/svg" width="24" height="24" fill="none"><path stroke="url(#a)" stroke-linecap="round" stroke-width="2" d="M9 17h6"/><path stroke="url(#b)" stroke-linecap="round" stroke-width="2" d="M9 13h6"/><path stroke="url(#c)" stroke-linecap="round" stroke-width="2" d="M9 9h1"/><path stroke="url(#d)" stroke-width="2" d="M5 6a3 3 0 0 1 3-3h5.172a2 2 0 0 1 1.414.586l3.828 3.828A2 2 0 0 1 19 8.828V18a3 3 0 0 1-3 3H8a3 3 0 0 1-3-3V6Z"/><path stroke="url(#e)" stroke-width="2" d="M13 3v2a4 4 0 0 0 4 4h2"/><defs><linearGradient id="a" x1="11.186" x2="11.953" y1="18.099" y2="15.812" gradientUnits="userSpaceOnUse"><stop stop-color="#fff"/><stop offset="1" stop-color="#AED3FF"/></linearGradient><linearGradient id="b" x1="11.186" x2="11.953" y1="14.099" y2="11.812" gradientUnits="userSpaceOnUse"><stop stop-color="#fff"/><stop offset="1" stop-color="#AED3FF"/></linearGradient><linearGradient id="c" x1="9.364" x2="10.379" y1="10.099" y2="9.594" gradientUnits="userSpaceOnUse"><stop stop-color="#fff"/><stop offset="1" stop-color="#AED3FF"/></linearGradient><linearGradient id="d" x1="10.101" x2="25.509" y1="22.776" y2="16.815" gradientUnits="userSpaceOnUse"><stop stop-color="#fff"/><stop offset="1" stop-color="#AED3FF"/></linearGradient><linearGradient id="e" x1="15.186" x2="21.272" y1="9.592" y2="6.565" gradientUnits="userSpaceOnUse"><stop stop-color="#fff"/><stop offset="1" stop-color="#AED3FF"/></linearGradient></defs></svg>
